icons/numix/32x32/mimetypes/application-vnd.ms-access.svg

<?xml version="1.0" encoding="UTF-8" standalone="no"?>
<svg
   xmlns:dc="http://purl.org/dc/elements/1.1/"
   xmlns:cc="http://creativecommons.org/ns#"
   xmlns:rdf="http://www.w3.org/1999/02/22-rdf-syntax-ns#"
   xmlns:svg="http://www.w3.org/2000/svg"
   xmlns="http://www.w3.org/2000/svg"
   xmlns:sodipodi="http://sodipodi.sourceforge.net/DTD/sodipodi-0.dtd"
   xmlns:inkscape="http://www.inkscape.org/namespaces/inkscape"
   width="32"
   height="32"
   viewBox="0 0 32 32"
   id="svg2"
   version="1.1"
   inkscape:version="0.48.5 r10040"
   sodipodi:docname="application-vnd.ms-access.svg">
  <metadata
     id="metadata36">
    <rdf:RDF>
      <cc:Work
         rdf:about="">
        <dc:format>image/svg+xml</dc:format>
        <dc:type
           rdf:resource="http://purl.org/dc/dcmitype/StillImage" />
      </cc:Work>
    </rdf:RDF>
  </metadata>
  <defs
     id="defs34" />
  <sodipodi:namedview
     pagecolor="#ffffff"
     bordercolor="#666666"
     borderopacity="1"
     objecttolerance="10"
     gridtolerance="10"
     guidetolerance="10"
     inkscape:pageopacity="0"
     inkscape:pageshadow="2"
     inkscape:window-width="1280"
     inkscape:window-height="970"
     id="namedview32"
     showgrid="true"
     inkscape:zoom="14.75"
     inkscape:cx="12.06099"
     inkscape:cy="13.993641"
     inkscape:window-x="0"
     inkscape:window-y="0"
     inkscape:window-maximized="1"
     inkscape:current-layer="svg2">
    <inkscape:grid
       type="xygrid"
       id="grid3034" />
  </sodipodi:namedview>
  <path
     style="fill:#a33639;fill-opacity:1"
     d="M 5.335888,2.972e-4 C 4.648414,3.122e-4 4,0.6767882 4,1.3940315 L 4,30.606268 C 4,31.282757 4.687474,32 5.335888,32 l 21.327331,0 c 0.648414,0 1.335888,-0.717243 1.335888,-1.393732 L 28,9 19,2e-7 z"
     id="path4-1"
     inkscape:connector-curvature="0"
     sodipodi:nodetypes="ssssssccs" />
  <path
     style="fill:#000000;fill-opacity:0.19599998"
     d="m 4,24 0,6.667969 C 4,31.316407 4.6875,32 5.332031,32 l 21.335937,0 C 27.3125,32 28,31.316407 28,30.667969 L 28,24 z"
     id="path18"
     inkscape:connector-curvature="0" />
  <g
     style="fill:#ffffff"
     id="g20"
     transform="matrix(1,0,0,0.77634568,0,6.7096296)">
    <path
       d="m 10.277344,29.890625 -0.191406,-1.179687 -1.070313,0 -0.183594,1.179687 -0.832031,0 C 8.191406,28.886719 8.382812,27.96875 8.578125,27.144531 8.773438,26.3125 8.960938,25.523438 9.144531,24.78125 l 0.871094,0 c 0.191406,0.75 0.378906,1.542969 0.566406,2.386719 0.191407,0.835937 0.375,1.746093 0.554688,2.722656 l -0.859375,0 M 9.5625,25.773438 c -0.042969,0.191406 -0.085938,0.375 -0.125,0.550781 -0.035156,0.171875 -0.070312,0.34375 -0.105469,0.511719 -0.027343,0.167968 -0.058593,0.335937 -0.089843,0.503906 -0.027344,0.171875 -0.050782,0.347656 -0.078126,0.53125 l 0.789063,0 C 9.925781,27.6875 9.898438,27.511719 9.875,27.339844 9.847656,27.171875 9.816406,27.003906 9.78125,26.835938 9.75,26.667969 9.71875,26.496094 9.679688,26.324219 9.644531,26.148438 9.605469,25.964844 9.5625,25.773438"
       id="path22"
       inkscape:connector-curvature="0" />
    <path
       d="m 13.117188,30 c -0.566407,0 -1,-0.230469 -1.300782,-0.695312 -0.296875,-0.460938 -0.449218,-1.117188 -0.449218,-1.972657 0,-0.421875 0.04687,-0.800781 0.136718,-1.128906 0.09375,-0.332031 0.21875,-0.609375 0.378906,-0.835937 0.164063,-0.230469 0.359376,-0.402344 0.578126,-0.519532 0.226562,-0.121094 0.472656,-0.179687 0.734374,-0.179687 0.144532,0 0.273438,0.01563 0.386719,0.04687 0.117188,0.02734 0.21875,0.0625 0.304688,0.101562 0.08594,0.03906 0.15625,0.07813 0.214843,0.121094 0.05859,0.04687 0.105469,0.07813 0.136719,0.101562 l -0.210937,0.808594 c -0.09766,-0.08203 -0.21875,-0.152344 -0.363282,-0.207031 -0.136718,-0.05859 -0.296874,-0.08984 -0.480468,-0.08984 -0.125,0 -0.25,0.03125 -0.371094,0.08984 -0.117188,0.05469 -0.222656,0.152344 -0.316406,0.289063 -0.09375,0.132812 -0.167969,0.3125 -0.230469,0.535156 -0.05469,0.226562 -0.08203,0.507812 -0.08203,0.84375 0,0.582031 0.07813,1.03125 0.234375,1.34375 0.160156,0.308594 0.417969,0.464844 0.777343,0.464844 0.210938,0 0.378907,-0.03125 0.515626,-0.08984 0.136718,-0.0625 0.25,-0.121094 0.332031,-0.183594 l 0.199219,0.800781 c -0.109376,0.08984 -0.265626,0.171875 -0.460938,0.246094 C 13.589844,29.964844 13.371094,30 13.117188,30"
       id="path24"
       inkscape:connector-curvature="0" />
    <path
       d="m 16.371094,30 c -0.570313,0 -1.003906,-0.230469 -1.300782,-0.695312 -0.300781,-0.460938 -0.449218,-1.117188 -0.449218,-1.972657 0,-0.421875 0.04687,-0.800781 0.136718,-1.128906 0.08984,-0.332031 0.214844,-0.609375 0.378907,-0.835937 0.164062,-0.230469 0.355469,-0.402344 0.578125,-0.519532 0.222656,-0.121094 0.46875,-0.179687 0.734375,-0.179687 0.144531,0 0.269531,0.01563 0.382812,0.04687 0.117188,0.02734 0.21875,0.0625 0.304688,0.101562 0.08984,0.03906 0.160156,0.07813 0.214843,0.121094 0.0625,0.04687 0.109376,0.07813 0.136719,0.101562 l -0.207031,0.808594 c -0.101562,-0.08203 -0.222656,-0.152344 -0.363281,-0.207031 -0.140625,-0.05859 -0.300781,-0.08984 -0.480469,-0.08984 -0.128906,0 -0.25,0.03125 -0.371094,0.08984 -0.117187,0.05469 -0.226562,0.152344 -0.320312,0.289063 -0.08984,0.132812 -0.167969,0.3125 -0.226563,0.535156 -0.05859,0.226562 -0.08594,0.507812 -0.08594,0.84375 0,0.582031 0.07813,1.03125 0.234375,1.34375 0.160156,0.308594 0.421875,0.464844 0.78125,0.464844 0.207031,0 0.378906,-0.03125 0.511719,-0.08984 0.140624,-0.0625 0.25,-0.121094 0.332031,-0.183594 l 0.203125,0.800781 c -0.113282,0.08984 -0.265625,0.171875 -0.460938,0.246094 C 16.84375,29.964844 16.621094,30 16.371094,30"
       id="path26"
       inkscape:connector-curvature="0" />
    <path
       d="m 18.847656,29.066406 c 0.02344,0.0078 0.04687,0.0078 0.07422,0.0078 0.02344,0 0.04687,0 0.07031,0 0.183593,0 0.332031,-0.04297 0.453124,-0.132813 0.128907,-0.08594 0.226563,-0.207031 0.300782,-0.363281 0.07813,-0.152344 0.132812,-0.335937 0.164062,-0.542969 0.03516,-0.214844 0.05078,-0.449218 0.05078,-0.703125 0,-0.21875 -0.01172,-0.433593 -0.03906,-0.644531 -0.02734,-0.207031 -0.07031,-0.390625 -0.136719,-0.550781 -0.06641,-0.160157 -0.152344,-0.285157 -0.265625,-0.378907 -0.113281,-0.101562 -0.257812,-0.148437 -0.4375,-0.148437 -0.03516,0 -0.07422,0 -0.117187,0.0078 -0.04297,0 -0.08203,0.0039 -0.117188,0.01562 l 0,3.433594 m 1.925782,-1.734375 c 0,0.472657 -0.04688,0.878907 -0.144532,1.214844 -0.08984,0.332031 -0.21875,0.601563 -0.382812,0.808594 -0.164063,0.210937 -0.359375,0.363281 -0.589844,0.460937 -0.226562,0.09375 -0.476562,0.140625 -0.75,0.140625 -0.140625,0 -0.28125,-0.0078 -0.421875,-0.03125 -0.132813,-0.01563 -0.28125,-0.04687 -0.4375,-0.08984 l 0,-4.988282 c 0.183594,-0.05078 0.355469,-0.08203 0.515625,-0.09766 0.160156,-0.01563 0.308594,-0.02734 0.449219,-0.02734 0.265625,0 0.503906,0.05078 0.722656,0.148438 0.21875,0.101562 0.40625,0.257812 0.558594,0.472656 0.152343,0.207031 0.269531,0.480469 0.351562,0.808594 0.08594,0.324218 0.128907,0.71875 0.128907,1.179687"
       id="path28"
       inkscape:connector-curvature="0" />
    <path
       d="m 24,28.347656 c 0,0.308594 -0.04297,0.566406 -0.125,0.777344 -0.08203,0.203125 -0.195312,0.367188 -0.335938,0.496094 -0.140624,0.121094 -0.304687,0.207031 -0.5,0.261718 -0.191406,0.05078 -0.398437,0.07422 -0.621093,0.07422 -0.175781,0 -0.359375,-0.01172 -0.550781,-0.03906 -0.191407,-0.02344 -0.378907,-0.05859 -0.566407,-0.109375 l 0,-4.960938 c 0.152344,-0.03125 0.320313,-0.05859 0.5,-0.08203 0.183594,-0.02734 0.363281,-0.04297 0.539063,-0.04297 0.304687,0 0.550781,0.04297 0.742187,0.125 0.191407,0.07813 0.339844,0.183594 0.449219,0.3125 0.109375,0.128906 0.183594,0.269532 0.222656,0.429688 0.03906,0.160156 0.05859,0.320312 0.05859,0.480468 0,0.242188 -0.05078,0.457032 -0.144531,0.644532 -0.08984,0.1875 -0.214844,0.335937 -0.371094,0.445312 0.273437,0.125 0.457031,0.296875 0.554687,0.511719 C 23.949219,27.886719 24,28.113281 24,28.347656 m -1.898438,-0.691406 0,1.386719 c 0.05469,0.01172 0.117188,0.01953 0.179688,0.02344 0.07031,0.0078 0.136719,0.0078 0.203125,0.0078 0.08984,0 0.179687,-0.0078 0.265625,-0.02344 0.08594,-0.02344 0.164062,-0.05859 0.230469,-0.109375 0.06641,-0.05469 0.125,-0.128906 0.167969,-0.222656 0.04297,-0.09766 0.06641,-0.222656 0.06641,-0.371094 0,-0.246094 -0.06641,-0.421875 -0.191406,-0.527344 C 22.902344,27.710938 22.738281,27.65625 22.53125,27.65625 l -0.429688,0 m 0.3125,-0.84375 c 0.203126,0 0.355469,-0.05469 0.460938,-0.164062 0.105469,-0.117188 0.15625,-0.273438 0.15625,-0.472657 0,-0.121093 -0.01563,-0.214843 -0.04687,-0.289062 -0.03125,-0.07422 -0.07031,-0.132813 -0.121094,-0.171875 -0.05469,-0.04297 -0.113281,-0.07031 -0.183593,-0.08203 -0.07031,-0.01562 -0.140626,-0.02344 -0.214844,-0.02344 -0.0625,0 -0.125,0 -0.1875,0.0078 -0.06641,0.0039 -0.125,0.01172 -0.175782,0.02344 l 0,1.171875 0.3125,0"
       id="path30"
       inkscape:connector-curvature="0" />
  </g>
  <path
     style="fill:#000000;fill-opacity:0.19599998"
     d="m 21,9 7,7 0,-7 z"
     id="path6-4"
     inkscape:connector-curvature="0"
     sodipodi:nodetypes="cccc" />
  <path
     style="fill:#ffffff;fill-opacity:0.39200003"
     d="M 19.000305,2.972e-4 27.991899,9 20.378637,9 C 19.705686,9 19.000305,8.2865104 19.000305,7.6135598 z"
     id="path8-6"
     inkscape:connector-curvature="0"
     sodipodi:nodetypes="ccssc" />
  <g
     style="fill:#ffffff"
     id="g10"
     transform="matrix(0.93772881,0,0,0.93772881,0.9963399,-0.2564071)">
    <path
       d="m 16,12 c -2.945312,0 -5.332031,0.746094 -5.332031,1.667969 l 0,1.332031 c 0,0.921875 2.386719,1.667969 5.332031,1.667969 2.945312,0 5.332031,-0.746094 5.332031,-1.667969 l 0,-1.332031 C 21.332031,12.746094 18.945312,12 16,12 z"
       id="path12"
       inkscape:connector-curvature="0" />
    <path
       d="m 15.984375,17.332031 c -2.390625,0 -4.402344,-0.488281 -5.082031,-1.164062 -0.160156,0.15625 -0.234375,0.324219 -0.234375,0.5 l 0,1.332031 c 0,0.921875 2.386719,1.667969 5.332031,1.667969 2.945312,0 5.332031,-0.746094 5.332031,-1.667969 l 0,-1.332031 c 0,-0.175781 -0.09375,-0.34375 -0.25,-0.5 -0.679687,0.675781 -2.710937,1.164062 -5.097656,1.164062 z"
       id="path14"
       inkscape:connector-curvature="0" />
    <path
       d="m 15.984375,20.332031 c -2.390625,0 -4.402344,-0.488281 -5.082031,-1.164062 -0.160156,0.15625 -0.234375,0.324219 -0.234375,0.5 l 0,1.332031 c 0,0.921875 2.386719,1.667969 5.332031,1.667969 2.945312,0 5.332031,-0.746094 5.332031,-1.667969 l 0,-1.332031 c 0,-0.175781 -0.09375,-0.34375 -0.25,-0.5 -0.679687,0.675781 -2.710937,1.164062 -5.097656,1.164062 z"
       id="path16"
       inkscape:connector-curvature="0" />
  </g>
</svg>

<svg width="32" xmlns="http://www.w3.org/2000/svg" height="32" viewBox="0 0 32 32" xmlns:xlink="http://www.w3.org/1999/xlink">
<path style="fill:#a33639" d="M 5.332031 0.667969 C 4.648438 0.667969 4 1.3125 4 2 L 4 30 C 4 30.648438 4.6875 31.332031 5.332031 31.332031 L 26.667969 31.332031 C 27.3125 31.332031 28 30.648438 28 30 L 28 9.332031 L 19.332031 0.667969 Z "/>
<path style="fill:#000;fill-opacity:.196" d="M 19.332031 8 L 19.375 8.042969 L 19.480469 8 Z M 20.667969 9.332031 L 28 16.667969 L 28 9.332031 Z "/>
<path style="fill:#fff;fill-opacity:.392" d="M 19.332031 0.667969 L 28 9.332031 L 20.667969 9.332031 C 20.019531 9.332031 19.332031 8.648438 19.332031 8 Z "/>
<g style="fill:#fff">
<path d="M 16 10.667969 C 13.054688 10.667969 10.667969 11.414062 10.667969 12.332031 L 10.667969 13.667969 C 10.667969 14.585938 13.054688 15.332031 16 15.332031 C 18.945312 15.332031 21.332031 14.585938 21.332031 13.667969 L 21.332031 12.332031 C 21.332031 11.414062 18.945312 10.667969 16 10.667969 Z "/>
<path d="M 15.984375 16 C 13.59375 16 11.582031 15.507812 10.902344 14.832031 C 10.742188 14.992188 10.667969 15.160156 10.667969 15.332031 L 10.667969 16.667969 C 10.667969 17.585938 13.054688 18.332031 16 18.332031 C 18.945312 18.332031 21.332031 17.585938 21.332031 16.667969 L 21.332031 15.332031 C 21.332031 15.160156 21.238281 14.992188 21.082031 14.832031 C 20.402344 15.507812 18.371094 16 15.984375 16 Z "/>
<path d="M 15.984375 19 C 13.59375 19 11.582031 18.507812 10.902344 17.832031 C 10.742188 17.992188 10.667969 18.160156 10.667969 18.332031 L 10.667969 19.667969 C 10.667969 20.585938 13.054688 21.332031 16 21.332031 C 18.945312 21.332031 21.332031 20.585938 21.332031 19.667969 L 21.332031 18.332031 C 21.332031 18.160156 21.238281 17.992188 21.082031 17.832031 C 20.402344 18.507812 18.371094 19 15.984375 19 Z "/>
</g>
<path style="fill:#000;fill-opacity:.196" d="M 4 23.332031 L 4 30 C 4 30.648438 4.6875 31.332031 5.332031 31.332031 L 26.667969 31.332031 C 27.3125 31.332031 28 30.648438 28 30 L 28 23.332031 Z "/>
<g style="fill:#fff">
<path d="M 10.277344 29.890625 L 10.085938 28.710938 L 9.015625 28.710938 L 8.832031 29.890625 L 8 29.890625 C 8.191406 28.886719 8.382812 27.96875 8.578125 27.144531 C 8.773438 26.3125 8.960938 25.523438 9.144531 24.78125 L 10.015625 24.78125 C 10.207031 25.53125 10.394531 26.324219 10.582031 27.167969 C 10.773438 28.003906 10.957031 28.914062 11.136719 29.890625 L 10.277344 29.890625 M 9.5625 25.773438 C 9.519531 25.964844 9.476562 26.148438 9.4375 26.324219 C 9.402344 26.496094 9.367188 26.667969 9.332031 26.835938 C 9.304688 27.003906 9.273438 27.171875 9.242188 27.339844 C 9.214844 27.511719 9.191406 27.6875 9.164062 27.871094 L 9.953125 27.871094 C 9.925781 27.6875 9.898438 27.511719 9.875 27.339844 C 9.847656 27.171875 9.816406 27.003906 9.78125 26.835938 C 9.75 26.667969 9.71875 26.496094 9.679688 26.324219 C 9.644531 26.148438 9.605469 25.964844 9.5625 25.773438 "/>
<path d="M 13.117188 30 C 12.550781 30 12.117188 29.769531 11.816406 29.304688 C 11.519531 28.84375 11.367188 28.1875 11.367188 27.332031 C 11.367188 26.910156 11.414062 26.53125 11.503906 26.203125 C 11.597656 25.871094 11.722656 25.59375 11.882812 25.367188 C 12.046875 25.136719 12.242188 24.964844 12.460938 24.847656 C 12.6875 24.726562 12.933594 24.667969 13.195312 24.667969 C 13.339844 24.667969 13.46875 24.683594 13.582031 24.714844 C 13.699219 24.742188 13.800781 24.777344 13.886719 24.816406 C 13.972656 24.855469 14.042969 24.894531 14.101562 24.9375 C 14.160156 24.984375 14.207031 25.015625 14.238281 25.039062 L 14.027344 25.847656 C 13.929688 25.765625 13.808594 25.695312 13.664062 25.640625 C 13.527344 25.582031 13.367188 25.550781 13.183594 25.550781 C 13.058594 25.550781 12.933594 25.582031 12.8125 25.640625 C 12.695312 25.695312 12.589844 25.792969 12.496094 25.929688 C 12.402344 26.0625 12.328125 26.242188 12.265625 26.464844 C 12.210938 26.691406 12.183594 26.972656 12.183594 27.308594 C 12.183594 27.890625 12.261719 28.339844 12.417969 28.652344 C 12.578125 28.960938 12.835938 29.117188 13.195312 29.117188 C 13.40625 29.117188 13.574219 29.085938 13.710938 29.027344 C 13.847656 28.964844 13.960938 28.90625 14.042969 28.84375 L 14.242188 29.644531 C 14.132812 29.734375 13.976562 29.816406 13.78125 29.890625 C 13.589844 29.964844 13.371094 30 13.117188 30 "/>
<path d="M 16.371094 30 C 15.800781 30 15.367188 29.769531 15.070312 29.304688 C 14.769531 28.84375 14.621094 28.1875 14.621094 27.332031 C 14.621094 26.910156 14.667969 26.53125 14.757812 26.203125 C 14.847656 25.871094 14.972656 25.59375 15.136719 25.367188 C 15.300781 25.136719 15.492188 24.964844 15.714844 24.847656 C 15.9375 24.726562 16.183594 24.667969 16.449219 24.667969 C 16.59375 24.667969 16.71875 24.683594 16.832031 24.714844 C 16.949219 24.742188 17.050781 24.777344 17.136719 24.816406 C 17.226562 24.855469 17.296875 24.894531 17.351562 24.9375 C 17.414062 24.984375 17.460938 25.015625 17.488281 25.039062 L 17.28125 25.847656 C 17.179688 25.765625 17.058594 25.695312 16.917969 25.640625 C 16.777344 25.582031 16.617188 25.550781 16.4375 25.550781 C 16.308594 25.550781 16.1875 25.582031 16.066406 25.640625 C 15.949219 25.695312 15.839844 25.792969 15.746094 25.929688 C 15.65625 26.0625 15.578125 26.242188 15.519531 26.464844 C 15.460938 26.691406 15.433594 26.972656 15.433594 27.308594 C 15.433594 27.890625 15.511719 28.339844 15.667969 28.652344 C 15.828125 28.960938 16.089844 29.117188 16.449219 29.117188 C 16.65625 29.117188 16.828125 29.085938 16.960938 29.027344 C 17.101562 28.964844 17.210938 28.90625 17.292969 28.84375 L 17.496094 29.644531 C 17.382812 29.734375 17.230469 29.816406 17.035156 29.890625 C 16.84375 29.964844 16.621094 30 16.371094 30 "/>
<path d="M 18.847656 29.066406 C 18.871094 29.074219 18.894531 29.074219 18.921875 29.074219 C 18.945312 29.074219 18.96875 29.074219 18.992188 29.074219 C 19.175781 29.074219 19.324219 29.03125 19.445312 28.941406 C 19.574219 28.855469 19.671875 28.734375 19.746094 28.578125 C 19.824219 28.425781 19.878906 28.242188 19.910156 28.035156 C 19.945312 27.820312 19.960938 27.585938 19.960938 27.332031 C 19.960938 27.113281 19.949219 26.898438 19.921875 26.6875 C 19.894531 26.480469 19.851562 26.296875 19.785156 26.136719 C 19.71875 25.976562 19.632812 25.851562 19.519531 25.757812 C 19.40625 25.65625 19.261719 25.609375 19.082031 25.609375 C 19.046875 25.609375 19.007812 25.609375 18.964844 25.617188 C 18.921875 25.617188 18.882812 25.621094 18.847656 25.632812 L 18.847656 29.066406 M 20.773438 27.332031 C 20.773438 27.804688 20.726562 28.210938 20.628906 28.546875 C 20.539062 28.878906 20.410156 29.148438 20.246094 29.355469 C 20.082031 29.566406 19.886719 29.71875 19.65625 29.816406 C 19.429688 29.910156 19.179688 29.957031 18.90625 29.957031 C 18.765625 29.957031 18.625 29.949219 18.484375 29.925781 C 18.351562 29.910156 18.203125 29.878906 18.046875 29.835938 L 18.046875 24.847656 C 18.230469 24.796875 18.402344 24.765625 18.5625 24.75 C 18.722656 24.734375 18.871094 24.722656 19.011719 24.722656 C 19.277344 24.722656 19.515625 24.773438 19.734375 24.871094 C 19.953125 24.972656 20.140625 25.128906 20.292969 25.34375 C 20.445312 25.550781 20.5625 25.824219 20.644531 26.152344 C 20.730469 26.476562 20.773438 26.871094 20.773438 27.332031 "/>
<path d="M 24 28.347656 C 24 28.65625 23.957031 28.914062 23.875 29.125 C 23.792969 29.328125 23.679688 29.492188 23.539062 29.621094 C 23.398438 29.742188 23.234375 29.828125 23.039062 29.882812 C 22.847656 29.933594 22.640625 29.957031 22.417969 29.957031 C 22.242188 29.957031 22.058594 29.945312 21.867188 29.917969 C 21.675781 29.894531 21.488281 29.859375 21.300781 29.808594 L 21.300781 24.847656 C 21.453125 24.816406 21.621094 24.789062 21.800781 24.765625 C 21.984375 24.738281 22.164062 24.722656 22.339844 24.722656 C 22.644531 24.722656 22.890625 24.765625 23.082031 24.847656 C 23.273438 24.925781 23.421875 25.03125 23.53125 25.160156 C 23.640625 25.289062 23.714844 25.429688 23.753906 25.589844 C 23.792969 25.75 23.8125 25.910156 23.8125 26.070312 C 23.8125 26.3125 23.761719 26.527344 23.667969 26.714844 C 23.578125 26.902344 23.453125 27.050781 23.296875 27.160156 C 23.570312 27.285156 23.753906 27.457031 23.851562 27.671875 C 23.949219 27.886719 24 28.113281 24 28.347656 M 22.101562 27.65625 L 22.101562 29.042969 C 22.15625 29.054688 22.21875 29.0625 22.28125 29.066406 C 22.351562 29.074219 22.417969 29.074219 22.484375 29.074219 C 22.574219 29.074219 22.664062 29.066406 22.75 29.050781 C 22.835938 29.027344 22.914062 28.992188 22.980469 28.941406 C 23.046875 28.886719 23.105469 28.8125 23.148438 28.71875 C 23.191406 28.621094 23.214844 28.496094 23.214844 28.347656 C 23.214844 28.101562 23.148438 27.925781 23.023438 27.820312 C 22.902344 27.710938 22.738281 27.65625 22.53125 27.65625 L 22.101562 27.65625 M 22.414062 26.8125 C 22.617188 26.8125 22.769531 26.757812 22.875 26.648438 C 22.980469 26.53125 23.03125 26.375 23.03125 26.175781 C 23.03125 26.054688 23.015625 25.960938 22.984375 25.886719 C 22.953125 25.8125 22.914062 25.753906 22.863281 25.714844 C 22.808594 25.671875 22.75 25.644531 22.679688 25.632812 C 22.609375 25.617188 22.539062 25.609375 22.464844 25.609375 C 22.402344 25.609375 22.339844 25.609375 22.277344 25.617188 C 22.210938 25.621094 22.152344 25.628906 22.101562 25.640625 L 22.101562 26.8125 L 22.414062 26.8125 "/>
</g>
</svg>
